packages/foundations/assets/icons/functional/images/social/face_sad_28.svg

<svg width="28" height="28" viewBox="0 0 28 28" fill="none" xmlns="http://www.w3.org/2000/svg">
<g clip-path="url(#clip0_187_382)">
<path fill-rule="evenodd" clip-rule="evenodd" d="M14 3.5C19.7986 3.5 24.5 8.20138 24.5 14C24.5 19.7986 19.7986 24.5 14 24.5C8.20138 24.5 3.5 19.7986 3.5 14C3.5 8.20138 8.20138 3.5 14 3.5ZM14 4.98138C9.02738 4.98138 4.98138 9.02738 4.98138 14C4.98138 18.9726 9.02738 23.0186 14 23.0186C18.9726 23.0186 23.0186 18.9726 23.0186 14C23.0186 9.02738 18.9726 4.98138 14 4.98138ZM14 15.3125C16.9365 15.3125 18.8808 17.2393 18.9621 17.3215C19.3025 17.6654 19.2999 18.2184 18.9569 18.5588C18.7863 18.7276 18.5631 18.8125 18.3409 18.8125C18.116 18.8125 17.8903 18.7259 17.7196 18.5535C17.7074 18.5412 16.1892 17.0625 14 17.0625C11.7845 17.0625 10.2952 18.5395 10.2804 18.5535C9.94 18.8965 9.38525 18.8991 9.04313 18.5588C8.70013 18.2184 8.6975 17.6654 9.03788 17.3215C9.11925 17.2393 11.0635 15.3125 14 15.3125ZM10.9375 9.625C11.904 9.625 12.6875 10.4085 12.6875 11.375C12.6875 12.3415 11.904 13.125 10.9375 13.125C9.971 13.125 9.1875 12.3415 9.1875 11.375C9.1875 10.4085 9.971 9.625 10.9375 9.625ZM17.0625 9.625C18.029 9.625 18.8125 10.4085 18.8125 11.375C18.8125 12.3415 18.029 13.125 17.0625 13.125C16.096 13.125 15.3125 12.3415 15.3125 11.375C15.3125 10.4085 16.096 9.625 17.0625 9.625Z" fill="#1A1C1F"/>
</g>
<defs>
<clipPath id="clip0_187_382">
<rect width="28" height="28" fill="white"/>
</clipPath>
</defs>
</svg>

<svg xmlns="http://www.w3.org/2000/svg" width="28" height="28" fill="none"><g clip-path="url(#a)"><path fill="#1A1C1F" fill-rule="evenodd" d="M14 3.5c5.799 0 10.5 4.701 10.5 10.5S19.799 24.5 14 24.5 3.5 19.799 3.5 14 8.201 3.5 14 3.5m0 1.481c-4.973 0-9.019 4.046-9.019 9.019S9.027 23.019 14 23.019s9.019-4.046 9.019-9.019S18.973 4.981 14 4.981m0 10.332c2.936 0 4.88 1.926 4.962 2.008a.875.875 0 1 1-1.242 1.232c-.013-.012-1.53-1.49-3.72-1.49-2.216 0-3.705 1.477-3.72 1.49a.875.875 0 1 1-1.242-1.232c.081-.082 2.025-2.009 4.962-2.009m-3.062-5.688a1.75 1.75 0 1 1 0 3.5 1.75 1.75 0 0 1 0-3.5m6.124 0a1.75 1.75 0 1 1 0 3.5 1.75 1.75 0 0 1 0-3.5" clip-rule="evenodd"/></g><defs><clipPath id="a"><path fill="#fff" d="M0 0h28v28H0z"/></clipPath></defs></svg>
